icons/svgs/filter-solid.svg

<svg width="24" height="24" viewBox="0 0 24 24" fill="none" xmlns="http://www.w3.org/2000/svg">
<path d="M2.11719 4.14844C2.39062 3.60156 2.9375 3.25 3.5625 3.25H20.4375C21.0234 3.25 21.5703 3.60156 21.8438 4.14844C22.0781 4.69531 22 5.35938 21.6094 5.82812L14.5 14.5391V19.5C14.5 20.0078 14.2266 20.4375 13.7969 20.6328C13.3672 20.8281 12.8594 20.7891 12.4688 20.5156L9.96875 18.6406C9.65625 18.4062 9.5 18.0547 9.5 17.625V14.5391L2.35156 5.82812C1.96094 5.35938 1.88281 4.69531 2.11719 4.14844Z" fill="black"/>
</svg>

<svg xmlns="http://www.w3.org/2000/svg" width="24" height="24" fill="currentColor" class="icon-filter-solid" viewBox="0 0 24 24">
  <mask id="a" width="21" height="18" x="1" y="3" maskUnits="userSpaceOnUse" style="mask-type:alpha">
    <path d="M2.117 4.148c.274-.546.82-.898 1.446-.898h16.875c.585 0 1.132.352 1.406.898a1.64 1.64 0 0 1-.235 1.68L14.5 14.54v4.96c0 .508-.273.938-.703 1.133s-.938.156-1.328-.117l-2.5-1.875c-.313-.235-.469-.586-.469-1.016v-3.086L2.352 5.83a1.64 1.64 0 0 1-.235-1.68"/>
  </mask>
  <g mask="url(#a)">
    <path d="M0 0h24v24H0z"/>
  </g>
</svg>
